modules/map-icons/icons/park.svg

<svg version="1.2" baseProfile="tiny" xmlns="http://www.w3.org/2000/svg" width="50" height="50" viewBox="0 0 50 50" overflow="inherit"><path d="M17.1 26h14.87l-4.893-13h-5.073l-4.904 13zm-8.1-13v-4h32v4h-7.871l4.905 13h11.966v4h-10.137l5.729 14h-5.559l-5.728-14h-18.523l-5.702 14h-5.56l5.697-14h-10.217v-4h12.042l4.901-13h-7.943z"/></svg>

<svg version="1.2" baseProfile="tiny" xmlns="http://www.w3.org/2000/svg" width="50" height="50" viewBox="0 0 50 50" overflow="inherit"><path d="M17.1 26h14.87l-4.893-13h-5.073L17.1 26zM9 13V9h32v4h-7.871l4.905 13H50v4H39.863l5.729 14h-5.559l-5.728-14H15.782L10.08 44H4.52l5.697-14H0v-4h12.042l4.901-13H9z"/></svg>
